X:250
T:Miller's Jig. (p)1686.PLFD.250
M:9/4
L:1/4
Q:3/4=120
S:Playford, Dancing Master,7th Ed.,1686
O:England
H:1686.
Z:Chris Partington.
K:C
c2G(EG)E(EG)E|c2GE/F/F>ED2_B|A2G(EG)E(EG)A/B/|c>BAGE2C3:|
|:e2c(e/f/)gf(d/e/)fd|e2d(c/d/)ef(ge)c|d2AB/c/de(dB)G|
c2GE/F/F>ED2_B|A2G(EG)E(EG)A/B/|c>BAGE2C3:|
